X:150
T:Jock Tamson's Hornpipe
M:2/4
L:1/16
Z:abc by Bruce Osborne - bosborne@kos.net
K:D
Ad|fgfe dedB|A2F2 F3E|DFAd gfed|cdef e2Ad|!
fgfe dedB|A2F2 F3A|FAdf egec|d2f2 d2:|!
|:ef|gfeg fedf|edcB A2ef|gfeg fedf|e2a2 a2ef|!
gfeg fedf|edce dcBA|Bdce dfeg|f2d2 d2:|!
